svgs/thin/banjo.svg

<svg xmlns="http://www.w3.org/2000/svg" viewBox="0 0 512 512"><!--! Font Awesome Pro 6.3.0 by @fontawesome - https://fontawesome.com License - https://fontawesome.com/license (Commercial License) Copyright 2023 Fonticons, Inc. --><path d="M501.3 37.47l-26.71-26.7C467.6 3.832 458.4 0 448.5 0c-.0156 0 .0156 0 0 0c-9.83 0-19.09 3.844-26.23 11L378.1 58.52c-1.016 1.094-1.688 2.438-1.984 3.891l-15.54 77.66l-78.04 78.04C256.2 194.2 222.1 178.7 184 176.8V168c0-4.422-3.578-8-8-8s-8 3.578-8 8v8.807C129.9 178.7 95.56 193.8 69.06 217.8L62.86 211.5c-3.125-3.125-8.188-3.125-11.31 0c-3.125 3.125-3.125 8.188 0 11.31l6.203 6.203C33.77 255.6 18.72 289.9 16.81 328H8C3.578 328 0 331.6 0 336s3.578 8 8 8H16.81c1.914 38.07 16.97 72.44 40.94 98.94l-6.203 6.203c-3.125 3.125-3.125 8.188 0 11.31c1.563 1.562 3.609 2.344 5.656 2.344s4.094-.7813 5.656-2.344l6.203-6.203c26.5 23.98 60.86 39.03 98.94 40.94V504c0 4.422 3.578 8 8 8s8-3.578 8-8v-8.807c38.07-1.914 72.44-16.97 98.94-40.94l6.203 6.203c1.562 1.562 3.609 2.344 5.656 2.344s4.094-.7813 5.656-2.344c3.125-3.125 3.125-8.188 0-11.31l-6.203-6.203c23.98-26.5 39.03-60.86 40.94-98.94h8.807c4.422 0 8-3.578 8-8s-3.578-8-8-8H335.2c-1.914-38.06-17.43-72.19-41.3-98.58l78.09-78.09l77.6-15.52c1.455-.2969 2.799-.9687 3.893-1.984l47.79-44.42C515.6 75.09 515.6 51.78 501.3 37.47zM320 336c0 79.53-64.47 144-144 144S32 415.5 32 336S96.47 192 176 192S320 256.5 320 336zM490.2 77.89l-45.92 42.67l-66.03 13.2l13.21-66.02l42.43-45.64C437.8 18.17 442.1 16 448.5 16c0 0-.0156 0 0 0c5.549 0 10.78 2.156 14.7 6.078l26.71 26.7C498 56.86 498 70.02 490.2 77.89zM117.7 330.3c-3.125-3.125-8.188-3.125-11.31 0c-3.125 3.125-3.125 8.188 0 11.31l64 64C171.9 407.2 173.1 408 176 408s4.094-.7813 5.656-2.344c3.125-3.125 3.125-8.188 0-11.31L117.7 330.3z"/></svg>

<svg xmlns="http://www.w3.org/2000/svg" viewBox="0 0 512 512"><!-- Font Awesome Pro 6.0.0-alpha2 by @fontawesome - https://fontawesome.com License - https://fontawesome.com/license (Commercial License) --><path d="M501.264 37.469L474.555 10.766C467.6 3.828 458.364 0 448.549 0C448.534 0 448.534 0 448.518 0C438.688 0 429.452 3.844 422.311 11L378.145 58.516C377.129 59.609 376.457 60.953 376.161 62.406L360.625 140.062L282.584 218.104C256.188 194.236 222.065 178.721 184 176.807V168C184 163.578 180.422 160 176 160S168 163.578 168 168V176.807C129.926 178.721 95.563 193.773 69.063 217.75L62.859 211.547C59.734 208.422 54.672 208.422 51.547 211.547C48.422 214.672 48.422 219.734 51.547 222.859L57.75 229.062C33.773 255.562 18.721 289.926 16.807 328H8C3.578 328 0 331.578 0 336S3.578 344 8 344H16.807C18.721 382.074 33.773 416.438 57.75 442.938L51.547 449.141C48.422 452.266 48.422 457.328 51.547 460.453C53.109 462.016 55.156 462.797 57.203 462.797S61.297 462.016 62.859 460.453L69.063 454.25C95.563 478.227 129.926 493.279 168 495.193V504C168 508.422 171.578 512 176 512S184 508.422 184 504V495.193C222.074 493.279 256.438 478.227 282.938 454.25L289.141 460.453C290.703 462.016 292.75 462.797 294.797 462.797S298.891 462.016 300.453 460.453C303.578 457.328 303.578 452.266 300.453 449.141L294.25 442.938C318.227 416.438 333.28 382.074 335.194 344H344C348.422 344 352 340.422 352 336S348.422 328 344 328H335.194C333.28 289.936 317.764 255.812 293.897 229.416L371.985 151.328L449.581 135.812C451.036 135.516 452.379 134.844 453.473 133.828L501.264 89.406C515.579 75.094 515.579 51.781 501.264 37.469ZM320 336C320 415.529 255.53 480 176 480S32 415.529 32 336S96.471 192 176 192S320 256.471 320 336ZM490.153 77.891L444.237 120.562L378.207 133.766L391.412 67.75L433.844 22.109C437.766 18.172 442.971 16 448.534 16C448.534 16 448.534 16 448.549 16C454.098 16 459.317 18.156 463.241 22.078L489.95 48.781C498.03 56.859 498.03 70.016 490.153 77.891ZM117.656 330.344C114.531 327.219 109.469 327.219 106.344 330.344C103.219 333.469 103.219 338.531 106.344 341.656L170.344 405.656C171.906 407.219 173.953 408 176 408S180.094 407.219 181.656 405.656C184.781 402.531 184.781 397.469 181.656 394.344L117.656 330.344Z"/></svg>
